assets/img/settings-icon--black.svg

<?xml version="1.0" encoding="UTF-8" standalone="no"?>
<svg width="20px" height="20px" viewBox="0 0 20 20" version="1.1" xmlns="http://www.w3.org/2000/svg" xmlns:xlink="http://www.w3.org/1999/xlink">
    <!-- Generator: Sketch 48.1 (47250) - http://www.bohemiancoding.com/sketch -->
    <title>Shape</title>
    <desc>Created with Sketch.</desc>
    <defs></defs>
    <g id="Page-1" stroke="none" stroke-width="1" fill="none" fill-rule="evenodd">
        <g id="settings-icon" fill="#2B2926" fill-rule="nonzero">
            <path d="M3.868,16.182 C3.15774686,16.5616568 2.27443916,16.3126885 1.867,15.618 L1.112,14.307 C0.712338006,13.6054724 0.940548681,12.7134163 1.628,12.29 L2.103,11.999 C2.402,11.815 2.644,11.383 2.644,11.033 L2.642,8.968 C2.642,8.615 2.401,8.184 2.102,8.001 L1.626,7.708 C0.939492772,7.28430202 0.711815467,6.39304484 1.111,5.692 L1.867,4.383 C2.27494451,3.68637567 3.16105566,3.43755743 3.872,3.82 L4.361,4.088 C4.669,4.255 5.164,4.248 5.469,4.072 L7.256,3.042 C7.56,2.867 7.813,2.44 7.822,2.092 L7.837,1.533 C7.86120336,0.72606399 8.51971669,0.0830190946 9.327,0.078 L10.839,0.076 C11.64,0.076 12.308,0.723 12.327,1.526 L12.344,2.088 C12.353,2.438 12.606,2.865 12.91,3.04 L14.698,4.072 C15.001,4.248 15.497,4.256 15.805,4.088 L16.297,3.819 C17.0077475,3.43886108 17.8918532,3.68837144 18.299,4.384 L19.054,5.694 C19.454,6.387 19.226,7.289 18.536,7.711 L18.062,8.004 C17.762,8.188 17.52,8.619 17.52,8.969 L17.522,11.033 C17.523,11.384 17.762,11.816 18.063,11.999 L18.539,12.29 C19.2251889,12.7144086 19.4527312,13.605579 19.054,14.307 L18.299,15.618 C17.8917414,16.3155123 17.0048209,16.5645578 16.294,16.181 L15.805,15.913 C15.496,15.746 15,15.753 14.699,15.928 L12.91,16.96 C12.605,17.134 12.352,17.56 12.344,17.91 L12.327,18.468 C12.3028424,19.2743346 11.6456692,19.9173751 10.839,19.924 L9.328,19.925 C8.52137081,19.9221297 7.86225863,19.2802694 7.838,18.474 L7.822,17.912 C7.813,17.561 7.56,17.136 7.256,16.96 L5.47,15.928 C5.166,15.753 4.67,15.746 4.362,15.913 L3.868,16.182 Z M7.904,13.772 C9.98792522,14.9742523 12.6518496,14.260829 13.856,12.178 C15.0594162,10.0942356 14.345756,7.42944929 12.2619941,6.22602868 C10.1782323,5.02260807 7.51344446,5.73626259 6.31001942,7.82002191 C5.10659438,9.90378122 5.82024325,12.5685705 7.904,13.772 Z" id="Shape"></path>
        </g>
    </g>
</svg>

<svg width="20" height="20" viewBox="0 0 20 20" xmlns="http://www.w3.org/2000/svg"><title>Shape</title><path d="M3.868 16.182a1.5 1.5 0 0 1-2.001-.564l-.755-1.311a1.498 1.498 0 0 1 .516-2.017l.475-.291c.299-.184.541-.616.541-.966l-.002-2.065c0-.353-.241-.784-.54-.967l-.476-.293a1.498 1.498 0 0 1-.515-2.016l.756-1.309a1.5 1.5 0 0 1 2.005-.563l.489.268c.308.167.803.16 1.108-.016l1.787-1.03c.304-.175.557-.602.566-.95l.015-.559A1.5 1.5 0 0 1 9.327.078l1.512-.002c.801 0 1.469.647 1.488 1.45l.017.562c.009.35.262.777.566.952l1.788 1.032c.303.176.799.184 1.107.016l.492-.269a1.5 1.5 0 0 1 2.002.565l.755 1.31c.4.693.172 1.595-.518 2.017l-.474.293c-.3.184-.542.615-.542.965l.002 2.064c.001.351.24.783.541.966l.476.291a1.5 1.5 0 0 1 .515 2.017l-.755 1.311a1.498 1.498 0 0 1-2.005.563l-.489-.268c-.309-.167-.805-.16-1.106.015L12.91 16.96c-.305.174-.558.6-.566.95l-.017.558a1.501 1.501 0 0 1-1.488 1.456l-1.511.001a1.496 1.496 0 0 1-1.49-1.451l-.016-.562c-.009-.351-.262-.776-.566-.952L5.47 15.928c-.304-.175-.8-.182-1.108-.015l-.494.269zm4.036-2.41a4.357 4.357 0 1 0 4.358-7.546 4.357 4.357 0 0 0-4.358 7.546z" fill="#2B2926" fill-rule="nonzero"/></svg>
